!!!!SEGMENT: pl-kk--kk-i-3--030_anonim--tractus-pro-festis-pentecosten-alleluia-veni-sancte-spiritus.krn
!!!cenid: 15xx:638
!!!COM: Anonim
!!!COM-rismid: pe30004985
!!!CDT:
!!!CNT:
!!!OTL: Tractus pro Festis Pentecosten/Alleluia, Veni Sancte Spiritus
!!!PDT:
!!!AGN:
!!!SMS-siglum: PL-Kk
!!!SMS-shelfmark: Kk.I.3
!!!SMS-shelfwork: 030 W
!!!SMS-variant:
!!!SMS-altvar:
!!!NIFC-rismid: 1001145493
!!!URL-scan: http://repozytorium.nifc.pl/skany/pl-kk-nut--i-3
!!!ONB-nifc: UWAGA: Discantus (s. 99r-100r, skan 0101-0102), Tenor (s. 73v-74v ,skan 0246-0247), Bassus (s. 96v-97v, skan 0400-0401)
!!!key: d:dor
**kern	**text	**text	**kern	**text	**text	**kern	**text	**text
*part3	*part3	*part3	*part2	*part2	*part2	*part1	*part1	*part1
*staff3	*staff3	*staff3	*staff2	*staff2	*staff2	*staff1	*staff1	*staff1
*I"Bassus	*	*	*I"Tenor	*	*	*I"Discantus	*	*
*I'B	*	*	*I'T	*	*	*I'A	*	*
*Ibass	*	*	*Itenor	*	*	*Ialto	*	*
*ICvox	*	*	*ICvox	*	*	*ICvox	*	*
*clefF4	*	*	*clefC4	*	*	*clefC3	*	*
*k[]	*	*	*k[]	*	*	*k[]	*	*
*C:	*	*	*C:	*	*	*C:	*	*
*M2/1	*	*	*M2/1	*	*	*M2/1	*	*
*met(C|)	*	*	*met(C|)	*	*	*met(C|)	*	*
=1-	=1-	=1-	=1-	=1-	=1-	=1-	=1-	=1-
!LO:TX:a:i:t=p(ro)<...>\nFeſtis Pentecoſt.	!	!	!LO:TX:a:i:t=<...> pro\nFeſtis Pentecoſt.	!	!	!LO:TX:a:i:t=Tractus 2d(us)\nPro feſtis Pente\nCoſt.	!	!
00r	.	.	0r	.	.	1r	.	.
.	.	.	.	.	.	1c	Al-	.
=2-	=2-	=2-	=2-	=2-	=2-	=2-	=2-	=2-
*	*	*	*	*	*	*lig	*	*
.	.	.	1r	.	.	1d	-le-	.
.	.	.	1C	Al-	.	1e	.	.
*	*	*	*	*	*	*Xlig	*	*
=3-	=3-	=3-	=3-	=3-	=3-	=3-	=3-	=3-
*	*	*	*lig	*	*	*	*	*
1r	.	.	1D	-le-	.	1f	.	.
1C	Al-	.	1E	.	.	1e	.	.
*	*	*	*Xlig	*	*	*	*	*
=4-	=4-	=4-	=4-	=4-	=4-	=4-	=4-	=4-
*lig	*	*	*	*	*	*	*	*
1D	-le-	.	1F	.	.	1d	.	.
!	!	!	!	!	!	!LO:SIC:v:t=custos f	!	!
1E	.	.	1E	.	.	1g	.	.
*Xlig	*	*	*	*	*	*	*	*
!	!	!	!	!	!	!LO:LB:g=original	!	!
=5-	=5-	=5-	=5-	=5-	=5-	=5-	=5-	=5-
1F	.	.	2D/	.	.	1f	.	.
.	.	.	1D	.	.	.	.	.
*lig	*	*	*	*	*	*2\right	*	*
1E	.	.	.	.	.	2g\	.	.
!	!	!	!LO:SIC:v:t=custos D	!	!	!	!	!
.	.	.	2C/	.	.	2e/	.	.
!	!	!	!LO:LB:g=original	!	!	!	!	!
=6-	=6-	=6-	=6-	=6-	=6-	=6-	=6-	=6-
1D	.	.	1D	.	.	1f	.	.
*Xlig	*	*	*	*	*	*	*	*
!LO:SIC:v:t=custos G	!	!	!	!	!	!	!	!
2C/	.	.	2.G/	.	.	2e/	.	.
!LO:LB:g=original	!	!	!	!	!	!	!	!
1G\	.	.	.	.	.	2d/	.	.
.	.	.	4F/	.	.	.	.	.
=7-	=7-	=7-	=7-	=7-	=7-	=7-	=7-	=7-
.	.	.	2E/	.	.	2e/	.	.
4F/	.	.	2.D/	.	.	1f	.	.
4E/	.	.	.	.	.	.	.	.
1D	.	.	.	.	.	.	.	.
.	.	.	4E/	.	.	.	.	.
.	.	.	2F/	.	.	2d/	.	.
=8-	=8-	=8-	=8-	=8-	=8-	=8-	=8-	=8-
2C/	.	.	2E/	.	.	2e/	.	.
2AA/	.	.	4D/	.	.	2.f\	.	.
.	.	.	4C/	.	.	.	.	.
2BB/	.	.	2D/	.	.	.	.	.
.	.	.	.	.	.	4e/	.	.
2D/	.	.	2F/	.	.	1d\	-lu-	.
=9-	=9-	=9-	=9-	=9-	=9-	=9-	=9-	=9-
1AA	-lu-	.	1E	-lu-	.	.	.	.
.	.	.	.	.	.	2c/	-ia	.
!	!	!	!LO:SIC:v:t=custos C	!	!	!LO:SIC:v:t=custos c	!	!
1Dl;/	-ia	.	1Dl;	-ia	.	1dl;<	.	.
!	!	!	!LO:LB:g=original	!	!	!LO:LB:g=original	!	!
=10||	=10||	=10||	=10||	=10||	=10||	=10||	=10||	=10||
*	*	*	*lig	*	*	*	*	*
2r	.	.	1C	Ve-	A-	0r	.	.
1C	Ve-	A-	.	.	.	.	.	.
.	.	.	1D	.	.	.	.	.
2BB/	.	.	.	.	.	.	.	.
*	*	*	*Xlig	*	*	*	*	*
=11-	=11-	=11-	=11-	=11-	=11-	=11-	=11-	=11-
!LO:SIC:v:t=custos AA	!	!	!	!	!	!	!	!
2C/	.	.	1E	.	.	1c	Ve-	A-
!LO:PB:g=original	!	!	!	!	!	!	!	!
2AA/	.	.	.	.	.	.	.	.
*	*	*	*	*	*	*lig	*	*
1D	.	.	2F/	.	.	1d	.	-ue
.	.	.	1D/	.	.	.	.	.
=12-	=12-	=12-	=12-	=12-	=12-	=12-	=12-	=12-
1AA	-ni	-ve	.	.	.	1e	.	.
.	.	.	2C/	.	-ve	.	.	.
*	*	*	*	*	*	*Xlig	*	*
2r	.	.	2D/	-ni	.	1f	.	.
2D/	san-	Vir-	2D/	san-	Vir-	.	.	.
=13-	=13-	=13-	=13-	=13-	=13-	=13-	=13-	=13-
2C/	.	.	2E/	.	.	2e/	.	.
2D/	.	.	2F/	-cte	.	1d	.	.
1E	-cte	-go	1G	.	.	.	.	.
.	.	.	.	.	.	2c/	.	.
=14-	=14-	=14-	=14-	=14-	=14-	=14-	=14-	=14-
2.D/	.	.	2.F/	.	-go	1d	-ni	.
4E/	.	.	4G/	.	.	.	.	.
2F/	spi-	Ma-	2A/	.	.	1d	san-	Vir-
2.G/	.	.	2.B/	spi-	Ma-	.	.	.
=15-	=15-	=15-	=15-	=15-	=15-	=15-	=15-	=15-
*	*	*	*	*	*	*lig	*	*
.	.	.	.	.	.	1e	-cte	-go
!	!	!	!LO:SIC:v:t=custos G 	!	!	!	!	!
4F/	-ri-	-ri-	4A/	.	.	.	.	.
!	!	!	!LO:PB:g=original	!	!	!	!	!
2E/	.	.	1G	.	.	.	.	.
1D	.	.	.	.	.	1f	.	.
.	.	.	1F/	-ri-	-ri-	.	.	.
*	*	*	*	*	*	*Xlig	*	*
=16-	=16-	=16-	=16-	=16-	=16-	=16-	=16-	=16-
!LO:SIC:v:t=custos D	!	!	!	!	!	!	!	!
0C	.	.	.	.	.	1g	.	.
.	.	.	4E/	.	.	.	.	.
.	.	.	4D/	.	.	.	.	.
*	*	*	*	*	*	*lig	*	*
.	.	.	1E	.	.	1g	spi-	Ma-
!LO:LB:g=original	!	!	!	!	!	!	!	!
=17-	=17-	=17-	=17-	=17-	=17-	=17-	=17-	=17-
2D/	.	.	2F/	.	.	1f	.	.
2F/	.	.	1A	.	.	.	.	.
*	*	*	*	*	*	*Xlig	*	*
1E	.	.	.	.	.	1g	.	.
.	.	.	2G/	-tus	-a	.	.	.
=18-	=18-	=18-	=18-	=18-	=18-	=18-	=18-	=18-
2D/	.	.	2A/	.	.	1f	-ri-	.
2BB-X/	.	.	2B/	.	.	.	.	.
!	!	!	!	!	!	!LO:SIC:v:t=custos d	!	!
2C/	.	.	2G/	.	.	1e	.	.
2AA/	.	.	2A/	.	.	.	.	.
!	!	!	!	!	!	!LO:PB:g=original	!	!
=19-	=19-	=19-	=19-	=19-	=19-	=19-	=19-	=19-
2BBny/	.	.	2F/	.	.	1d	.	.
2GG/	.	.	2G/	.	.	.	.	.
*	*	*	*	*	*	*lig	*	*
1D	.	.	2A/	.	.	1f	.	-ri-
!	!	!	!LO:SIC:v:t=custos G	!	!	!	!	!
.	.	.	2F/	.	.	.	.	.
!	!	!	!LO:LB:g=original	!	!	!	!	!
=20-	=20-	=20-	=20-	=20-	=20-	=20-	=20-	=20-
4C/	.	.	2G/	.	.	1e	.	.
4BB/	.	.	.	.	.	.	.	.
4AA/	.	.	1A	.	.	.	.	.
4GG/	.	.	.	.	.	.	.	.
*	*	*	*	*	*	*Xlig	*	*
2FF/	.	.	.	.	.	2f/	.	.
2GG/	-tus	.	4G/	.	.	1d\	.	.
.	.	.	4F/	.	.	.	.	.
=21-	=21-	=21-	=21-	=21-	=21-	=21-	=21-	=21-
1AA	.	-a	1E	.	.	.	.	.
.	.	.	.	.	.	2c/	.	.
!LO:SIC:v:t=custos D	!	!	!	!	!	!	!	!
2r	.	.	1D	.	.	2d/	-tus	-a
!LO:LB:g=original	!	!	!	!	!	!	!	!
1D\	re-	Cae-	.	.	.	1f\	.	.
=22-	=22-	=22-	=22-	=22-	=22-	=22-	=22-	=22-
.	.	.	1r	.	.	.	.	.
2C/	.	.	.	.	.	2e/	re-	.
*	*	*	*lig	*	*	*lig	*	*
1D	.	.	1F	re-	Cae-	1d	-ple	.
=23-	=23-	=23-	=23-	=23-	=23-	=23-	=23-	=23-
1AA	-ple	-li	1E	.	.	1c	.	.
*	*	*	*Xlig	*	*	*Xlig	*	*
*	*	*	*lig	*	*	*	*	*
1BB-X	.	re-	1D	-ple	-li	1d	.	Cae-
=24-	=24-	=24-	=24-	=24-	=24-	=24-	=24-	=24-
2AA/	.	.	1C	.	.	1e	.	.
2C/	.	.	.	.	.	.	.	.
*	*	*	*Xlig	*	*	*	*	*
1BB-y	.	-gi-	1D	.	re-	2f/	.	.
.	.	.	.	.	.	1d\	.	.
=25-	=25-	=25-	=25-	=25-	=25-	=25-	=25-	=25-
2AA/	.	-na	2E/	.	.	.	.	.
!	!	!	!	!	!	!LO:SIC:v:t=custos d	!	!
1A	tu-	.	2.F/	.	.	2c/	.	.
!	!	!	!	!	!	!LO:LB:g=original	!	!
.	.	.	.	.	.	1d	.	-li
.	.	.	4E/	.	.	.	.	.
*2\right	*	*	*	*	*	*	*	*
2F\	-o-	mun-	1D/	.	.	.	.	.
=26-	=26-	=26-	=26-	=26-	=26-	=26-	=26-	=26-
2G\	.	.	.	.	.	00r	.	.
2A\	.	.	2C/	.	-gi-	.	.	.
!	!	!	!LO:SIC:v:t=custos D	!	!	!	!	!
2D/	.	.	1D	.	-na	.	.	.
2.F/	.	.	.	.	.	.	.	.
!	!	!	!LO:LB:g=original	!	!	!	!	!
=27-	=27-	=27-	=27-	=27-	=27-	=27-	=27-	=27-
.	.	.	1D	tu-	mun-	.	.	.
4E/	.	.	.	.	.	.	.	.
4D/	.	.	.	.	.	.	.	.
!LO:SIC:v:t=custos BB	!	!	!	!	!	!	!	!
4C/	.	.	.	.	.	.	.	.
*	*	*	*lig	*	*	*	*	*
!LO:LB:g=original	!	!	!	!	!	!	!	!
2BBny/	.	.	1F	-o-	.	.	.	.
2AA/	.	.	.	.	.	.	.	.
=28-	=28-	=28-	=28-	=28-	=28-	=28-	=28-	=28-
1GG	-rum	.	1E	.	.	1g	tu-	re-
*	*	*	*Xlig	*	*	*	*	*
*	*	*	*lig	*	*	*	*	*
1FF	.	-di	1F	-rum	.	2a\	-o-	.
.	.	.	.	.	.	4g\	.	.
.	.	.	.	.	.	4f\	.	.
=29-	=29-	=29-	=29-	=29-	=29-	=29-	=29-	=29-
2r	.	.	1G	.	-di	1e	-rum	-gi-
2C/	cor-	et	.	.	.	.	.	.
*	*	*	*Xlig	*	*	*	*	*
2BB/	.	.	1G	cor-	et	2d/	.	-na
2.C/	-da	.	.	.	.	2.e/	cor-	mun-
=30-	=30-	=30-	=30-	=30-	=30-	=30-	=30-	=30-
*	*	*	*lig	*	*	*	*	*
.	.	.	1E	-da	.	.	.	.
4BB/	.	Do-	.	.	.	4f\	.	.
2.GG/	.	.	.	.	.	2.g\	-da	.
.	.	.	1D	.	.	.	.	.
4AA/	.	.	.	.	.	4f/	.	.
2.BB/	.	.	.	.	.	2.d/	.	-di
*	*	*	*Xlig	*	*	*	*	*
=31-	=31-	=31-	=31-	=31-	=31-	=31-	=31-	=31-
.	.	.	1F	.	.	.	.	.
!	!	!	!	!	!	!LO:SIC:v:t=custos f	!	!
4AA/	fi-	.	.	.	.	4e/	.	.
!	!	!	!	!	!	!LO:LB:g=original	!	!
2.FF/	.	.	.	.	.	1f	fi-	et
.	.	.	1F	fi-	Do-	.	.	.
4GG/	.	.	.	.	.	.	.	.
4AA/	.	.	.	.	.	4e/	.	.
4BB/	.	.	.	.	.	4d/	.	.
=32-	=32-	=32-	=32-	=32-	=32-	=32-	=32-	=32-
!LO:SIC:v:t=custos FF	!	!	!	!	!	!	!	!
2C/	-de-	.	2E/	-de-	.	1.c	.	Do-
!LO:LB:g=original	!	!	!	!	!	!	!	!
1FF	.	.	1F	.	.	.	.	.
2GG/	.	.	4E/	.	.	2B/	.	.
.	.	.	4D/	.	.	.	.	.
=33-	=33-	=33-	=33-	=33-	=33-	=33-	=33-	=33-
2AA/	.	.	2C/	.	.	2A/	-de-	.
2FF/	.	.	2D/	.	.	1d	-li-	.
2GG/	.	.	1E	-li-	-mi-	.	.	.
2AA/	.	.	.	.	.	2c/	.	-mi-
=34-	=34-	=34-	=34-	=34-	=34-	=34-	=34-	=34-
2.BB/	.	.	1D	-um	-na	0d	-um	-na
4C/	-li-	-mi-	.	.	.	.	.	.
!	!	!	!LO:SIC:v:t=custos E	!	!	!	!	!
2D/	.	.	1r	.	.	.	.	.
2GG/	.	-na	.	.	.	.	.	.
!	!	!	!LO:LB:g=original	!	!	!	!	!
=35-	=35-	=35-	=35-	=35-	=35-	=35-	=35-	=35-
1AA	.	.	1E	et	ſu-	0r	.	.
1GG	-um	.	1G	tu-	.	.	.	.
=36-	=36-	=36-	=36-	=36-	=36-	=36-	=36-	=36-
*	*	*	*lig	*	*	*	*	*
2r	.	.	1G	-i	-ſci-	1r	.	.
2G\	et	ſu-	.	.	.	.	.	.
2.F/	.	-ſci-	1A	.	-pe	2r	.	.
.	.	.	.	.	.	2c/	et	Su-
4E/	tu-	.	.	.	.	.	.	.
*	*	*	*Xlig	*	*	*	*	*
=37-	=37-	=37-	=37-	=37-	=37-	=37-	=37-	=37-
!LO:SIC:v:t=custos C	!	!	!	!	!	!	!	!
1D	-i	-pe	1A	a-	.	2d/	.	-ſci-
.	.	.	.	.	.	2f/	tu-	-pe
*	*	*	*lig	*	*	*	*	*
!LO:PB:g=original	!	!	!	!	!	!	!	!
2.C/	a-	tu-	1c	-mo-	tu-	2.e/	.	tu-
!	!	!	!	!	!	!LO:SIC:v:t=custos g	!	!
4D/	.	.	.	.	.	4f/	.	.
!	!	!	!	!	!	!LO:LB:g=original	!	!
=38-	=38-	=38-	=38-	=38-	=38-	=38-	=38-	=38-
4E/	.	.	1B	.	.	2.g\	.	-o-
4F/	.	.	.	.	.	.	.	.
1G	.	.	.	.	.	.	.	.
.	.	.	.	.	.	8f\L	.	.
.	.	.	.	.	.	8g\J	.	.
*	*	*	*Xlig	*	*	*	*	*
.	.	.	0A	.	-o-	1a	.	.
4F/	.	-o-	.	.	.	.	.	.
4E/	.	.	.	.	.	.	.	.
=39-	=39-	=39-	=39-	=39-	=39-	=39-	=39-	=39-
1F	.	.	.	.	.	1a	-i	-rum
2G/	-mo-	.	1G	.	.	2d/	a-	.
2E/	.	.	.	.	.	1g\	.	de
=40-	=40-	=40-	=40-	=40-	=40-	=40-	=40-	=40-
1D	-ris	.	1A	.	.	.	.	.
.	.	.	.	.	.	2f\	.	.
2C/	.	.	2E/	.	.	2.g\	.	.
2.D/	.	.	1F/	.	.	.	.	.
.	.	.	.	.	.	8f\L	.	no-
.	.	.	.	.	.	8e\J	.	.
=41-	=41-	=41-	=41-	=41-	=41-	=41-	=41-	=41-
.	.	.	.	.	.	1d	-mo-	.
4C/	.	.	.	.	.	.	.	.
2BB/	.	.	2D/	-ris	.	.	.	.
!LO:SIC:v:t=custos GG	!	!	!	!	!	!	!	!
1AA	.	-rum	2E/	.	.	1c	-ris	-tas
!	!	!	!LO:SIC:v:t=custos G	!	!	!	!	!
.	.	.	2F/	.	-rum	.	.	.
!LO:LB:g=original	!	!	!LO:LB:g=original	!	!	!	!	!
=42-	=42-	=42-	=42-	=42-	=42-	=42-	=42-	=42-
2GG/	.	tu-	2.G/	.	De	2r	.	.
1C	in	-o-	.	.	.	1g	in	lau-
.	.	.	4F/	.	.	.	.	.
.	.	.	4E/	.	.	.	.	.
.	.	.	4D/	.	.	.	.	.
!	!	!	!	!	!	!LO:SIC:v:t=custos g	!	!
2D/	.	.	2F/	.	.	2f\	.	.
!	!	!	!	!	!	!LO:LB:g=original	!	!
=43-	=43-	=43-	=43-	=43-	=43-	=43-	=43-	=43-
1C	.	.	2E/	.	.	2g\	.	.
.	.	.	2G/	.	no-	2e/	.	.
2D/	.	.	2F/	.	.	2f\	e-	.
4C/	.	.	1A\	in	.	4e/	.	.
4BB/	.	.	.	.	.	4d/	.	.
=44-	=44-	=44-	=44-	=44-	=44-	=44-	=44-	=44-
2.AA/	e-	.	.	.	.	2c/	.	.
.	.	.	4G/	.	.	1e	.	.
4BB/	.	.	4F/	.	.	.	.	.
2C/	.	.	2E/	.	.	.	.	.
2D/	.	.	2F/	.	.	1d\	.	.
=45-	=45-	=45-	=45-	=45-	=45-	=45-	=45-	=45-
1AA	-is	-rum	1E	e-	.	.	.	.
.	.	.	.	.	.	2c/	.	.
!	!	!	!LO:SIC:v:t=custos C	!	!	!	!	!
2r	.	.	0D	-is	-tas	0d	-is	-des
2A\	i-	de	.	.	.	.	.	.
=46-	=46-	=46-	=46-	=46-	=46-	=46-	=46-	=46-
2A\	-gnem	no-	.	.	.	.	.	.
!LO:SIC:v:t=custos G	!	!	!	!	!	!	!	!
2F\	.	-tas	.	.	.	.	.	.
!LO:LB:g=original	!	!	!LO:PB:g=original	!	!	!	!	!
2G\	.	lau-	1C	i-	lau-	00r	.	.
2A\	.	.	.	.	.	.	.	.
=47-	=47-	=47-	=47-	=47-	=47-	=47-	=47-	=47-
2D/	.	-des	1D	-gnem	.	.	.	.
2A\	.	ſer-	.	.	.	.	.	.
2G\	ac-	.	2E/	ac-	.	.	.	.
2.A\	.	-vo-	2.F/	.	.	.	.	.
=48-	=48-	=48-	=48-	=48-	=48-	=48-	=48-	=48-
.	.	.	.	.	.	.	.	.
4G\	.	.	4E/	.	.	.	.	.
2F/	.	.	1D	.	.	.	.	.
1E	.	.	.	.	.	1e	i-	ſer-
.	.	.	2C/	.	.	.	.	.
=49-	=49-	=49-	=49-	=49-	=49-	=49-	=49-	=49-
2D/	-cen-	.	2D/	-cen-	-des	2f\	.	.
1C	.	.	2.G/	.	ſer-	1e	.	.
.	.	.	4E/	.	.	.	.	.
2AA/	.	.	2.A/	.	.	2c/	-gnem	-vo-
=50-	=50-	=50-	=50-	=50-	=50-	=50-	=50-	=50-
!	!	!	!	!	!	!LO:SIC:v:t=custos e	!	!
2D/	.	.	.	.	.	2d/	.	.
.	.	.	4F/	.	-vo-	.	.	.
!	!	!	!	!	!	!LO:PB:g=original	!	!
2.C/	.	.	2G/	.	.	2.e/	ac-	.
!	!	!	!LO:SIC:v:t=custos F	!	!	!	!	!
.	.	.	2E/	.	.	.	.	.
4BB/	.	.	.	.	.	4d/	.	.
!LO:LB:g=original	!	!	!LO:LB:g=original	!	!	!	!	!
2AA/	.	.	2F/	.	.	2c/	.	.
=51-	=51-	=51-	=51-	=51-	=51-	=51-	=51-	=51-
2GG/	.	.	1G	.	.	4B/	.	.
.	.	.	.	.	.	4A/	.	.
2C/	.	.	.	.	.	2.e/	.	.
*	*	*	*lig	*	*	*	*	*
1BB	.	-rum	1D	.	.	.	.	.
.	.	.	.	.	.	4d/	.	.
.	.	.	.	.	.	1d\	-cen-	.
=52-	=52-	=52-	=52-	=52-	=52-	=52-	=52-	=52-
1AA	-de	.	1E	.	.	.	.	.
.	.	.	.	.	.	2c/	-de	.
*	*	*	*Xlig	*	*	*	*	*
!LO:TX:a:i:t=Venit Caeli nunti(us) Vide\n<...> Kyrie Feria 5ta	!	!	!LO:TX:a:i:t=Vide Venit Caeli nunti(us) <...>\nKyrie Feria 5ta	!	!	!LO:TX:a:i:t=Venit Caeli nunti(us)\nvide <...>	!	!
1Dl;<	.	.	1Dl;	-de	-rum	1dl;<	.	-rum
==	==	==	==	==	==	==	==	==
*-	*-	*-	*-	*-	*-	*-	*-	*-
!!!system-decoration: [(*)]
!!!RDF**kern: < = below
!!!RDF**kern: l = terminal long
!!!ENC: Anastazja Marusiak
!!!END: 2022-01-14
!!!ENC: Andrzej Kubiczek
!!!END: 2022-01-24
